X:1
T:Title
%%score 1 ( 2 3 ) { 4 | 5 }
L:1/8
Q:1/4=108
M:4/4
K:G
V:1 treble nm="Drawbar Organ, Soprano"
V:2 treble nm="Drawbar Organ, Staff-1"
V:3 treble 
V:4 treble nm="Choir Pad, Bass"
V:5 bass 
V:1
 G4 G2 A2 | B2 B2 c2 B2 | A8 | B4 c2 B2 | A2 G2 F2 G2 | A8 | d4 c2 B2 | A2 F2 G2 E2 | D8 | %9
w: By~German~Psalter,~1562 * *|||||||||
 B4 c2 B2 | A2 G2 B2 A2 | G8 |] %12
w: |||
V:2
 [DG]4 [EG]2 [FA]2 | [GB]2 [GB]2 [Gc]2 [GB]2 | [FA]8 | [GB]4 [Gc]2 [GB]2 | %4
 [FA]2 [EG]2 [^DF]2 [EG]2 | [FA]8 | [Fd]4 [Ec]2 [DB]2 | [EA]2 [DF]2 [DG]2 [^CE]2 | D8 | %9
 [DB]4 [Cc]2 [DB]2 | z4 B2 A2 | [B,G]8 |] %12
V:3
 x8 | x8 | x8 | x8 | x8 | x8 | x8 | x8 | x8 | x8 | [DA]2 [B,G]2 D3 C | x8 |] %12
V:4
 B,4 B,2 D2 | D2 E2 E2 D2 | D8 | D4 C2 D2 | D2[K:bass] B,2 B,2 B,2 | C8 | A,4 A,2 D2 | %7
 C2 A,2 B,2 A,2 | F,8 | G,4 G,2 G,2 | F,2 G,2 G,2 F,2 | G,8 |] %12
V:5
 G,4 E,2 D,2 | G,2 E,2 C,2 G,,2 | D,8 | G,4 E,2 G,2 | D,2 E,2 B,,2 E,2 | D,8 | D,4 A,,2 B,,2 | %7
 C,2 D,2 G,,2 A,,2 | D,8 | z4 E,2 z2 | D,2 E,2 B,,2 D,2 | G,,8 |] %12

